assets/Place of worship/Flat/place_of_worship_flat.svg

<svg width="32" height="32" viewBox="0 0 32 32" fill="none" xmlns="http://www.w3.org/2000/svg">
<path d="M2 6C2 3.79086 3.79086 2 6 2H26C28.2091 2 30 3.79086 30 6V26C30 28.2091 28.2091 30 26 30H6C3.79086 30 2 28.2091 2 26V6Z" fill="#8D65C5"/>
<path d="M24.4865 13.3698L16.4648 8.15869L8.32048 13.3734C7.85536 13.6712 7.2369 13.5356 6.93909 13.0705C6.64128 12.6054 6.77691 11.9869 7.24203 11.6891L15.7937 6.21353C16.2071 5.94886 16.7371 5.95061 17.1487 6.21801L25.576 11.6927C26.0392 11.9935 26.1707 12.6129 25.8698 13.076C25.569 13.5392 24.9496 13.6707 24.4865 13.3698Z" fill="white"/>
<path d="M18 13C18 14.1046 17.1046 15 16 15C14.8954 15 14 14.1046 14 13C14 11.8954 14.8954 11 16 11C17.1046 11 18 11.8954 18 13Z" fill="white"/>
<path d="M12.9771 16.0635C12.6152 15.5585 11.9124 15.4423 11.4073 15.8042C10.9023 16.166 10.7861 16.8688 11.148 17.3739L12.5119 19.2777C12.9332 19.8657 13.7379 20.0268 14.353 19.6463L15.2664 19.0814L16.5657 21.6801L13.9059 23.4098C12.7586 24.1559 13.287 25.9375 14.6555 25.9375H19.9688C20.5901 25.9375 21.0938 25.4338 21.0938 24.8125C21.0938 24.1911 20.5901 23.6875 19.9688 23.6875H17.6061L19.3314 22.5655C19.9202 22.1826 20.1258 21.4176 19.8083 20.7911L17.7203 16.6716C17.3562 15.9533 16.4554 15.7002 15.7705 16.1239L13.8648 17.3027L12.9771 16.0635Z" fill="white"/>
</svg>

<svg xmlns="http://www.w3.org/2000/svg" width="32" height="32" fill="none"><path fill="#8D65C5" d="M2 6a4 4 0 0 1 4-4h20a4 4 0 0 1 4 4v20a4 4 0 0 1-4 4H6a4 4 0 0 1-4-4V6Z"/><path fill="#fff" d="m24.486 13.37-8.021-5.211-8.145 5.214a1 1 0 1 1-1.078-1.684l8.552-5.475a1.25 1.25 0 0 1 1.355.004l8.427 5.475a1 1 0 1 1-1.09 1.677Z"/><path fill="#fff" d="M18 13a2 2 0 1 1-4 0 2 2 0 0 1 4 0ZM12.977 16.064a1.125 1.125 0 0 0-1.829 1.31l1.364 1.904c.421.588 1.226.749 1.841.368l.913-.565 1.3 2.6-2.66 1.729c-1.147.746-.619 2.527.75 2.527h5.313a1.125 1.125 0 0 0 0-2.25h-2.363l1.725-1.122a1.375 1.375 0 0 0 .477-1.774l-2.088-4.12a1.375 1.375 0 0 0-1.95-.547l-1.905 1.179-.888-1.24Z"/></svg>
